X: 1
T: Eisteddfod Caerfyrddin
O: Wales
R: jig
Z: 1997 by John Chambers <jc:trillian.mit.edu>
M: 6/8
L: 1/8
K: A
|: "A"AcB A2E | A3 Ace | "(D)"efe "A"ecA |1 "E7"cBB B3 :|2 "E7"BAB "A"A3 :|
|: "A"A2E A2c | e3 efg | "D"agf "A"edc |1 "E7"cBB B3 :|2 "E7"efe dcB :|
